build/images/icons/calc-banner.svg

<svg width="135" height="135" viewBox="0 0 135 135" fill="none" xmlns="http://www.w3.org/2000/svg">
  <g opacity="0.1">
    <path fill-rule="evenodd" clip-rule="evenodd" d="M0 31.8103H24.0517V7.75861H0V31.8103Z" fill="black"/>
    <path fill-rule="evenodd" clip-rule="evenodd" d="M0 39.569V107.86L12.0259 131.897L24.0517 107.86V39.569H0Z" fill="black"/>
    <path fill-rule="evenodd" clip-rule="evenodd" d="M31.8103 0V135H127.241V114.961H55.7998V20.0391H127.241V0H31.8103Z" fill="black"/>
    <path fill-rule="evenodd" clip-rule="evenodd" d="M87.6724 83.0172H103.19V67.5H87.6724V83.0172Z" fill="black"/>
    <path fill-rule="evenodd" clip-rule="evenodd" d="M87.6724 107.069H103.19V91.5518H87.6724V107.069Z" fill="black"/>
    <path fill-rule="evenodd" clip-rule="evenodd" d="M63.6206 59.7414H135V27.931H63.6206V59.7414Z" fill="black"/>
    <path fill-rule="evenodd" clip-rule="evenodd" d="M63.6206 83.0172H79.1378V67.5H63.6206V83.0172Z" fill="black"/>
    <path fill-rule="evenodd" clip-rule="evenodd" d="M110.948 107.069H135V67.5H110.948V107.069Z" fill="black"/>
    <path fill-rule="evenodd" clip-rule="evenodd" d="M63.6206 107.069H79.1378V91.5518H63.6206V107.069Z" fill="black"/>
  </g>
</svg>

<svg width="135" height="135" fill="none" xmlns="http://www.w3.org/2000/svg"><g opacity=".1" fill-rule="evenodd" clip-rule="evenodd" fill="#000"><path d="M0 31.81h24.052V7.76H0v24.05zm0 7.759v68.291l12.026 24.037 12.026-24.037V39.569H0zM31.81 0v135h95.431v-20.039H55.8V20.039h71.441V0h-95.43z"/><path d="M87.672 83.017h15.518V67.5H87.672v15.517zm0 24.052h15.518V91.552H87.672v15.517zM63.62 59.741H135v-31.81H63.62v31.81zm0 23.276h15.518V67.5H63.62v15.517zm47.328 24.052H135V67.5h-24.052v39.569zm-47.328 0h15.518V91.552H63.62v15.517z"/></g></svg>
